X:1
T:Pierre
C:Isabelle Patron-Pichot
N:all rights reserved
M:9/8
L:1/8
R:Mazurka
Q:3/8=80
K:AMin
^G A2B| "Am"c3- c2E B2E|"Am"A3- A2E B2E|"Am"c3- c2E d2E|"C" e6-    e3 |
        "C" e3- e2G e2g|"G" d3- d2c B2d|"Am"c3- c2E e2d|"E" B3- B2
^G A2B| "Am"c3- c2E B2E|"Am"A3- A2E G2E|"Dm"F3- F2E D2F|"Am"E6- E3    |
        "Em"B2E E6     |"Am"c2E E6     |"F" d2F F6     |"Em"e2d B6   ||
%
      |:"C" e2E E2e g2e|"G" d2D D2d g2d|"Am"c3- c2E e2d|"Em"B6
   c2d| "C" e2E E2e g2e|"G" d2D D2d g2d|"F" c2F F3  e2d|"Em"B6-    B3:|
%
        "C" c2d e2c d2e|"G" e2d B6     |"Am"A2B c2d e2f|"Em"g6-    g3 |
        "F" a6-     a3 |"C" g6-     g3 |"Dm"f6-     f3 |"Em"e2d B6    |
        "C" c2d e2c d2e|"G" e2d B2d c2B|"Am"A2B c2d e2f|"Em"g2b b6    |
        "F" a6-     a3 |"C" g6-     g3 |"Dm"f6-     f3 |"E" e2d B2   |]
